Point/img/twitter.svg

<svg width="41" height="41" viewBox="0 0 41 41" fill="none" xmlns="http://www.w3.org/2000/svg">
<path d="M20.2026 0C9.086 0 0.0722656 9.01373 0.0722656 20.1304C0.0722656 31.247 9.086 40.2607 20.2026 40.2607C31.3193 40.2607 40.333 31.247 40.333 20.1304C40.333 9.01373 31.3193 0 20.2026 0ZM29.8769 15.1742C29.8904 15.3854 29.8904 15.6055 29.8904 15.8212C29.8904 22.4175 24.8668 30.0158 15.6868 30.0158C12.8559 30.0158 10.2318 29.1935 8.02107 27.7781C8.42547 27.823 8.8119 27.841 9.22529 27.841C11.5619 27.841 13.7097 27.0502 15.4217 25.7112C13.2289 25.6662 11.3866 24.2283 10.7575 22.2512C11.5259 22.3636 12.2179 22.3636 13.0087 22.1614C11.8797 21.932 10.8648 21.3188 10.1366 20.426C9.40843 19.5331 9.0118 18.4157 9.0141 17.2636V17.2007C9.67463 17.5736 10.452 17.8028 11.2653 17.8342C10.5816 17.3786 10.0209 16.7613 9.63289 16.037C9.2449 15.3128 9.04162 14.504 9.04107 13.6824C9.04107 12.7522 9.28371 11.903 9.71957 11.1661C10.9728 12.7088 12.5366 13.9706 14.3094 14.8694C16.0822 15.7681 18.0243 16.2838 20.0094 16.3829C19.304 12.9904 21.8382 10.2449 24.8847 10.2449C26.3226 10.2449 27.6167 10.847 28.5289 11.8176C29.6567 11.6064 30.7351 11.184 31.6967 10.6179C31.3238 11.7727 30.5419 12.7477 29.5039 13.3633C30.5105 13.2555 31.481 12.9769 32.3797 12.586C31.7012 13.5835 30.852 14.4687 29.8769 15.1742Z" fill="#00325A"/>
</svg>

<svg width="41" height="41" fill="none" xmlns="http://www.w3.org/2000/svg"><path d="M20.203 0C9.086 0 .073 9.014.073 20.13c0 11.117 9.013 20.13 20.13 20.13 11.116 0 20.13-9.013 20.13-20.13C40.333 9.014 31.319 0 20.203 0zm9.674 15.174c.013.211.013.431.013.647 0 6.597-5.023 14.195-14.203 14.195a14.15 14.15 0 01-7.666-2.238c.404.045.79.063 1.204.063 2.337 0 4.485-.79 6.197-2.13a4.992 4.992 0 01-4.665-3.46c.769.113 1.46.113 2.252-.09a4.988 4.988 0 01-3.995-4.897V17.2c.66.373 1.438.602 2.251.633a4.993 4.993 0 01-2.224-4.152c0-.93.243-1.779.679-2.516a14.168 14.168 0 0010.29 5.217c-.706-3.393 1.828-6.138 4.875-6.138a4.98 4.98 0 013.644 1.573 9.86 9.86 0 003.168-1.2 4.967 4.967 0 01-2.193 2.745 9.87 9.87 0 002.876-.777 10.46 10.46 0 01-2.503 2.588z" fill="#00325A"/></svg>
